Themes/OneUI/assets/svg/sec_ic_settings_notifications.svg

<?xml version="1.0" encoding="UTF-8" standalone="no"?>
<svg
   width="28.000021"
   height="28.000021"
   viewBox="0 0 28.000021 28.000021"
   fill="none"
   version="1.1"
   id="svg2094"
   sodipodi:docname="sec_ic_settings_notifications.svg"
   xmlns:inkscape="http://www.inkscape.org/namespaces/inkscape"
   xmlns:sodipodi="http://sodipodi.sourceforge.net/DTD/sodipodi-0.dtd"
   xmlns="http://www.w3.org/2000/svg"
   xmlns:svg="http://www.w3.org/2000/svg">
  <sodipodi:namedview
     id="namedview2096"
     pagecolor="#ffffff"
     bordercolor="#666666"
     borderopacity="1.0"
     inkscape:showpageshadow="2"
     inkscape:pageopacity="0.0"
     inkscape:pagecheckerboard="0"
     inkscape:deskcolor="#d1d1d1" />
  <g
     clip-path="url(#clip0_1_1371)"
     id="g2087">
    <path
       d="M 24.856,3.14401 C 23.13,1.52161 20.7739,0.601214 18.1738,0.256914 15.6907,-0.072186 14,0.00881404 14,0.00881404 c 0,0 -1.691,-0.08100004 -4.17421,0.24809996 -2.6,0.3443 -4.956,1.264696 -6.6815,2.887096 -1.6228,1.7258 -2.543099,4.0819 -2.887599,6.6819 -0.3291004,2.48299 -0.2478004,4.17399 -0.2478004,4.17399 0,0 -0.0813,1.6908 0.2478004,4.174 0.3445,2.5998 1.264799,4.9561 2.887399,6.6819 1.7257,1.6226 4.0817,2.5428 6.6817,2.8875 C 12.309,28.0722 14,27.9912 14,27.9912 c 0,0 1.6907,0.081 4.1738,-0.2479 2.6001,-0.3447 4.9562,-1.2649 6.6818,-2.8875 1.623,-1.7258 2.5432,-4.0821 2.8877,-6.6819 0.3289,-2.4832 0.2479,-4.174 0.2479,-4.174 0,0 0.081,-1.691 -0.2479,-4.17399 -0.3445,-2.6 -1.2647,-4.9561 -2.8873,-6.6819 z"
       fill="#fc8e81"
       id="path2083" />
    <path
       d="m 15.6177,9.55099 c -0.0275,0.1137 -0.0513,0.2273 -0.0706,0.3447 -0.0183,0.11361 -0.0339,0.22821 -0.043,0.34371 -0.0074,0.1073 -0.0156,0.2127 -0.0156,0.3208 0,2.2798 1.8526,4.1342 4.1296,4.1342 0.0073,0 0.0128,-0.0018 0.0192,-0.0018 0.1164,0 0.2319,-0.0074 0.3447,-0.0174 0.1173,-0.0101 0.231,-0.0275 0.3447,-0.0468 v 1.2375 c 0,1.7105 -1.3906,3.1002 -3.1002,3.1002 H 8.9591 c -1.7087,0 -3.1002,-1.3897 -3.1002,-3.1002 v -3.2147 c 0,-1.7096 1.3915,-3.10021 3.1002,-3.10021 z m 4.0007,-1.5173 c 1.3943,0 2.5227,1.1312 2.5227,2.52641 0,1.1485 -0.7654,2.1165 -1.815,2.4236 -0.1109,0.0321 -0.2264,0.0559 -0.3438,0.0734 -0.1127,0.0165 -0.2273,0.0275 -0.3446,0.0284 -0.0064,0 -0.0129,9e-4 -0.0193,9e-4 -1.3933,0 -2.5226,-1.1312 -2.5226,-2.5263 0,-0.1091 0.0101,-0.2145 0.0229,-0.32 0.0137,-0.1173 0.0376,-0.2319 0.0678,-0.34461 0.033,-0.1164 0.0715,-0.2301 0.1183,-0.3401 0.3877,-0.8947 1.2769,-1.5217 2.3136,-1.5217 z"
       fill="#ffffff"
       id="path2085" />
  </g>
  <defs
     id="defs2092">
    <clipPath
       id="clip0_1_1371">
      <rect
         width="28"
         height="28"
         fill="#ffffff"
         id="rect2089"
         x="0"
         y="0" />
    </clipPath>
  </defs>
</svg>

<svg width="28" height="28" viewBox="0 0 28 28" fill="none" xmlns="http://www.w3.org/2000/svg">
<g clip-path="url(#clip0_1_1371)">
<path d="M24.856 3.14401C23.13 1.52161 20.7739 0.601214 18.1738 0.256914C15.6907 -0.072186 14 0.00881404 14 0.00881404C14 0.00881404 12.309 -0.072186 9.82579 0.256914C7.22579 0.601214 4.86979 1.52161 3.14429 3.14401C1.52149 4.86981 0.601191 7.22591 0.256691 9.82591C-0.0724094 12.3089 0.0088906 13.9999 0.0088906 13.9999C0.0088906 13.9999 -0.0724094 15.6907 0.256691 18.1739C0.601191 20.7737 1.52149 23.13 3.14409 24.8558C4.86979 26.4784 7.22579 27.3986 9.82579 27.7433C12.309 28.0722 14 27.9912 14 27.9912C14 27.9912 15.6907 28.0722 18.1738 27.7433C20.7739 27.3986 23.13 26.4784 24.8556 24.8558C26.4786 23.13 27.3988 20.7737 27.7433 18.1739C28.0722 15.6907 27.9912 13.9999 27.9912 13.9999C27.9912 13.9999 28.0722 12.3089 27.7433 9.82591C27.3988 7.22591 26.4786 4.86981 24.856 3.14401Z" fill="#FC8E81"/>
<path d="M15.6177 9.55099C15.5902 9.66469 15.5664 9.77829 15.5471 9.89569C15.5288 10.0093 15.5132 10.1239 15.5041 10.2394C15.4967 10.3467 15.4885 10.4521 15.4885 10.5602C15.4885 12.84 17.3411 14.6944 19.6181 14.6944C19.6254 14.6944 19.6309 14.6926 19.6373 14.6926C19.7537 14.6926 19.8692 14.6852 19.982 14.6752C20.0993 14.6651 20.213 14.6477 20.3267 14.6284V15.8659C20.3267 17.5764 18.9361 18.9661 17.2265 18.9661H8.9591C7.2504 18.9661 5.8589 17.5764 5.8589 15.8659V12.6512C5.8589 10.9416 7.2504 9.55099 8.9591 9.55099H15.6177ZM19.6184 8.03369C21.0127 8.03369 22.1411 9.16489 22.1411 10.5601C22.1411 11.7086 21.3757 12.6766 20.3261 12.9837C20.2152 13.0158 20.0997 13.0396 19.9823 13.0571C19.8696 13.0736 19.755 13.0846 19.6377 13.0855C19.6313 13.0855 19.6248 13.0864 19.6184 13.0864C18.2251 13.0864 17.0958 11.9552 17.0958 10.5601C17.0958 10.451 17.1059 10.3456 17.1187 10.2401C17.1324 10.1228 17.1563 10.0082 17.1865 9.89549C17.2195 9.77909 17.258 9.66539 17.3048 9.55539C17.6925 8.66069 18.5817 8.03369 19.6184 8.03369Z" fill="white"/>
</g>
<defs>
<clipPath id="clip0_1_1371">
<rect width="28" height="28" fill="white"/>
</clipPath>
</defs>
</svg>
